public/images/icons/chicken.svg

<svg width="23" height="23" viewBox="0 0 23 23" fill="none" xmlns="http://www.w3.org/2000/svg">
<path d="M20.7896 2.22624C19.3623 0.800724 17.4274 0 15.41 0C13.3925 0 11.4576 0.800724 10.0303 2.22624C8.43638 3.81758 7.19244 5.74893 7.19244 8.62349V12.4785L5.36762 14.3016C4.93186 14.7369 4.28944 14.7989 3.71531 14.5711C3.13559 14.3397 2.49373 14.3154 1.89818 14.5024C1.30263 14.6894 0.789904 15.0763 0.446623 15.5975C0.103342 16.1188 -0.0494465 16.7425 0.0140719 17.3634C0.0775903 17.9843 0.353521 18.5642 0.795245 19.0051C1.48124 19.6901 2.43542 19.8837 3.31639 19.682C3.11423 20.5623 3.3083 21.5159 3.99474 22.2017C4.43566 22.6446 5.01606 22.9215 5.63773 22.9857C6.25939 23.0498 6.88414 22.8973 7.40625 22.5539C7.92836 22.2105 8.31576 21.6972 8.50291 21.1011C8.69005 20.5049 8.66544 19.8624 8.43324 19.2823C8.20458 18.7105 8.26612 18.0696 8.70278 17.6316L10.5272 15.8099H14.3857C15.3311 15.8169 16.271 15.6651 17.166 15.3607C15.3852 13.3894 15.3767 10.4098 17.2132 8.57543C18.7577 7.03215 21.1108 6.80308 22.9967 7.82086C23.0551 5.80148 22.3314 3.76593 20.7896 2.22624Z"/>
</svg>

<svg xmlns="http://www.w3.org/2000/svg" width="23" height="23" fill="none" viewBox="0 0 23 23"><path d="M20.79 2.226a7.613 7.613 0 0 0-10.76 0C8.436 3.818 7.192 5.75 7.192 8.623v3.856l-1.824 1.823c-.436.435-1.079.497-1.653.27a2.711 2.711 0 0 0-2.92 4.433c.686.685 1.64.879 2.521.677-.202.88-.008 1.834.679 2.52a2.711 2.711 0 0 0 4.438-2.92c-.228-.572-.167-1.212.27-1.65l1.824-1.822h3.859a8.44 8.44 0 0 0 2.78-.45c-1.78-1.97-1.79-4.95.047-6.785 1.545-1.543 3.898-1.772 5.784-.754.058-2.02-.666-4.055-2.207-5.595z"/></svg>
